app/src/assets/illustrations/treasure.svg

<svg width="512" height="512" viewBox="0 0 512 512" fill="none" xmlns="http://www.w3.org/2000/svg">
<path d="M290.393 124.709L140.169 159.157C93.5314 169.852 65.1766 219.74 76.8362 270.587L83.5032 299.66C85.8594 309.936 95.4117 316.515 104.838 314.354L389.817 249.003C399.243 246.842 404.973 236.759 402.617 226.482L395.95 197.409C384.29 146.563 337.031 114.014 290.393 124.709V124.709Z" fill="url(#paint0_linear_72_18)"/>
<path d="M76.8371 270.587L83.5042 299.66C85.8604 309.937 95.4127 316.515 104.839 314.354L389.818 249.004C399.244 246.842 404.974 236.759 402.618 226.483L395.951 197.409C389.743 170.342 373.449 148.462 352.53 135.528L88.9565 195.969C75.7639 216.726 70.6299 243.52 76.8371 270.587V270.587Z" fill="url(#paint1_linear_72_18)"/>
<path d="M76.8371 270.587L83.5041 299.66C85.8603 309.936 95.4126 316.515 104.838 314.354L389.818 249.003C399.243 246.842 404.974 236.759 402.618 226.482L395.951 197.409C392.869 183.968 387.297 171.81 379.909 161.387L75.5801 231.175C73.4719 243.774 73.755 257.146 76.8371 270.587V270.587Z" fill="url(#paint2_linear_72_18)"/>
<path d="M367.073 152.613L372.609 176.755C374.241 183.874 369.794 190.968 362.675 192.6L109.936 250.558C102.817 252.19 95.723 247.743 94.0906 240.624L87.01 209.747C85.5453 203.359 76.9226 202.222 73.8586 208.015C63.6467 227.331 60.0487 250.26 65.3162 273.228L71.9833 302.302C74.3395 312.578 84.5805 318.999 94.8576 316.642L399.793 246.716C410.069 244.359 416.49 234.118 414.133 223.841L407.466 194.768C402.962 175.128 392.637 158.338 378.73 145.796C373.586 141.156 365.525 145.86 367.073 152.613V152.613Z" fill="url(#paint3_linear_72_18)"/>
<path d="M386.773 210.792L90.9282 278.634C81.0395 280.902 74.8162 290.56 77.0279 300.206L110.604 446.626C112.816 456.271 122.626 462.253 132.515 459.985L428.359 392.143C438.248 389.875 444.471 380.217 442.26 370.571L408.683 224.151C406.472 214.506 396.661 208.524 386.773 210.792V210.792Z" fill="url(#paint4_linear_72_18)"/>
<path d="M402.423 279.039L106.578 346.881C96.6897 349.149 89.7908 355.864 91.1712 361.88L112.112 453.198C113.491 459.214 122.626 462.253 132.516 459.985L428.36 392.143C438.249 389.875 445.148 383.16 443.768 377.144L422.827 285.826C421.446 279.81 412.312 276.771 402.423 279.039Z" fill="url(#paint5_linear_72_18)"/>
<path d="M411.8 319.931L115.955 387.773C106.066 390.041 98.7638 394.992 99.6442 398.833L113.014 457.136C113.895 460.977 122.626 462.252 132.515 459.984L428.359 392.142C438.248 389.874 445.55 384.922 444.67 381.082L431.3 322.779C430.419 318.938 421.689 317.663 411.8 319.931V319.931Z" fill="url(#paint6_linear_72_18)"/>
<path d="M147.396 265.685L90.9272 278.633C81.0385 280.901 74.8152 290.559 77.0269 300.204L110.603 446.624C112.815 456.27 122.625 462.251 132.514 459.984L188.982 447.035L147.396 265.685Z" fill="url(#paint7_linear_72_18)"/>
<path d="M389.958 203.822L85.0231 273.748C74.747 276.104 68.3269 286.345 70.6831 296.623L106.455 452.614C108.811 462.89 119.052 469.311 129.329 466.954L434.264 397.028C444.54 394.672 450.962 384.431 448.604 374.153L412.833 218.162C410.476 207.886 400.235 201.466 389.958 203.822V203.822ZM414.436 359.459C416.228 367.274 411.346 375.062 403.53 376.854L148.201 435.405C140.386 437.197 132.598 432.315 130.806 424.499L104.852 311.316C103.06 303.501 107.942 295.713 115.757 293.921L371.087 235.37C378.901 233.578 386.69 238.46 388.482 246.276L414.436 359.459Z" fill="url(#paint8_linear_72_18)"/>
<path d="M140.533 449.152L416.422 385.887C425.46 383.814 431.163 375.052 429.159 366.315L398.747 233.692C396.743 224.955 387.792 219.553 378.753 221.625L102.865 284.89C93.8264 286.963 88.1232 295.725 90.127 304.462L120.54 437.085C122.544 445.822 131.495 451.225 140.533 449.152V449.152ZM104.852 311.317C103.06 303.503 107.942 295.714 115.757 293.922L371.087 235.371C378.901 233.579 386.689 238.461 388.481 246.277L414.436 359.46C416.228 367.275 411.346 375.063 403.53 376.855L148.201 435.406C140.386 437.198 132.598 432.316 130.806 424.5L104.852 311.317Z" fill="url(#paint9_linear_72_18)"/>
<path d="M412.256 349.956L414.436 359.46C416.228 367.274 411.346 375.063 403.53 376.855L148.201 435.406C140.386 437.198 132.598 432.316 130.806 424.5L128.626 414.996L99.3672 421.706L106.455 452.615C108.811 462.891 119.052 469.312 129.329 466.955L434.264 397.029C444.541 394.672 450.962 384.431 448.604 374.154L441.517 343.246L412.256 349.956Z" fill="url(#paint10_linear_72_18)"/>
<path d="M448.605 374.155L434.449 312.425L267.555 207.795C264.488 204.727 259.968 203.247 255.427 204.288L208.779 214.985C201.764 216.593 197.382 223.584 198.992 230.597L205.252 257.9C207.517 267.775 214.011 275.579 222.383 279.846L415.983 401.218L434.264 397.026C444.541 394.672 450.961 384.431 448.605 374.155Z" fill="url(#paint11_linear_72_18)"/>
<path d="M251.09 279.825L243.133 281.65C225.435 285.709 207.797 274.652 203.739 256.953L197.477 229.65C195.869 222.636 200.251 215.646 207.265 214.038L253.913 203.341C260.927 201.733 267.917 206.115 269.525 213.128L275.785 240.431C279.845 258.129 268.788 275.766 251.09 279.825V279.825Z" fill="url(#paint12_linear_72_18)"/>
<path d="M241.645 268.821L246.838 267.63C258.389 264.981 265.607 253.47 262.958 241.918L258.871 224.097C257.821 219.519 253.259 216.659 248.681 217.709L218.234 224.692C213.657 225.742 210.796 230.304 211.847 234.881L215.933 252.702C218.582 264.253 230.094 271.47 241.645 268.821V268.821Z" fill="url(#paint13_linear_72_18)"/>
<path d="M250.052 235.768C248.458 228.815 241.528 224.471 234.574 226.065C227.621 227.659 223.277 234.589 224.872 241.542C226.042 246.647 230.092 250.335 234.912 251.31L236.76 259.369C237.416 262.229 240.267 264.017 243.128 263.361C245.988 262.705 247.776 259.854 247.119 256.994L245.271 248.934C249.185 245.957 251.222 240.873 250.052 235.768V235.768Z" fill="url(#paint14_linear_72_18)"/>
<path d="M368.574 169.177C384.168 169.177 396.809 156.535 396.809 140.941C396.809 125.347 384.168 112.706 368.574 112.706C352.98 112.706 340.338 125.347 340.338 140.941C340.338 156.535 352.98 169.177 368.574 169.177Z" fill="url(#paint15_linear_72_18)"/>
<path d="M410.123 219.538C419.163 219.538 426.492 212.21 426.492 203.169C426.492 194.129 419.163 186.8 410.123 186.8C401.083 186.8 393.754 194.129 393.754 203.169C393.754 212.21 401.083 219.538 410.123 219.538Z" fill="url(#paint16_linear_72_18)"/>
<path d="M38.5125 331.133C47.5528 331.133 54.8814 323.805 54.8814 314.764C54.8814 305.724 47.5528 298.396 38.5125 298.396C29.4722 298.396 22.1436 305.724 22.1436 314.764C22.1436 323.805 29.4722 331.133 38.5125 331.133Z" fill="url(#paint17_linear_72_18)"/>
<path d="M399.683 111.933C408.724 111.933 416.052 104.605 416.052 95.5643C416.052 86.5239 408.724 79.1953 399.683 79.1953C390.643 79.1953 383.314 86.5239 383.314 95.5643C383.314 104.605 390.643 111.933 399.683 111.933Z" fill="url(#paint18_linear_72_18)"/>
<path d="M302.912 95.5641C311.953 95.5641 319.281 88.2354 319.281 79.1951C319.281 70.1548 311.953 62.8262 302.912 62.8262C293.872 62.8262 286.543 70.1548 286.543 79.1951C286.543 88.2354 293.872 95.5641 302.912 95.5641Z" fill="url(#paint19_linear_72_18)"/>
<defs>
<linearGradient id="paint0_linear_72_18" x1="194.32" y1="149.73" x2="265.784" y2="300.995" gradientUnits="userSpaceOnUse">
<stop stop-color="#F6A96C"/>
<stop offset="1" stop-color="#CA6E59"/>
</linearGradient>
<linearGradient id="paint1_linear_72_18" x1="242.094" y1="196.021" x2="254.912" y2="30.012" gradientUnits="userSpaceOnUse">
<stop stop-color="#CA6E59" stop-opacity="0"/>
<stop offset="1" stop-color="#883F2E"/>
</linearGradient>
<linearGradient id="paint2_linear_72_18" x1="239.167" y1="233.939" x2="250.454" y2="87.7499" gradientUnits="userSpaceOnUse">
<stop stop-color="#CA6E59" stop-opacity="0"/>
<stop offset="1" stop-color="#883F2E"/>
</linearGradient>
<linearGradient id="paint3_linear_72_18" x1="200.699" y1="163.412" x2="266.88" y2="303.497" gradientUnits="userSpaceOnUse">
<stop stop-color="#FFE177"/>
<stop offset="1" stop-color="#FE9738"/>
</linearGradient>
<linearGradient id="paint4_linear_72_18" x1="216.144" y1="242.794" x2="309.233" y2="439.833" gradientUnits="userSpaceOnUse">
<stop stop-color="#F6A96C"/>
<stop offset="1" stop-color="#CA6E59"/>
</linearGradient>
<linearGradient id="paint5_linear_72_18" x1="242.89" y1="400.991" x2="437.482" y2="154.257" gradientUnits="userSpaceOnUse">
<stop stop-color="#CA6E59" stop-opacity="0"/>
<stop offset="1" stop-color="#883F2E"/>
</linearGradient>
<linearGradient id="paint6_linear_72_18" x1="238.748" y1="444.082" x2="392.017" y2="197.717" gradientUnits="userSpaceOnUse">
<stop stop-color="#CA6E59" stop-opacity="0"/>
<stop offset="1" stop-color="#883F2E"/>
</linearGradient>
<linearGradient id="paint7_linear_72_18" x1="136.493" y1="363.717" x2="75.7556" y2="377.671" gradientUnits="userSpaceOnUse">
<stop stop-color="#CA6E59" stop-opacity="0"/>
<stop offset="0.1958" stop-color="#B5604B" stop-opacity="0.196"/>
<stop offset="0.4986" stop-color="#9D4E3B" stop-opacity="0.499"/>
<stop offset="0.7753" stop-color="#8D4331" stop-opacity="0.775"/>
<stop offset="1" stop-color="#883F2E"/>
</linearGradient>
<linearGradient id="paint8_linear_72_18" x1="213.689" y1="237.599" x2="312.003" y2="445.694" gradientUnits="userSpaceOnUse">
<stop stop-color="#FFE177"/>
<stop offset="1" stop-color="#FE9738"/>
</linearGradient>
<linearGradient id="paint9_linear_72_18" x1="308.334" y1="436.582" x2="211.767" y2="232.182" gradientUnits="userSpaceOnUse">
<stop stop-color="#FFE177"/>
<stop offset="1" stop-color="#FE9738"/>
</linearGradient>
<linearGradient id="paint10_linear_72_18" x1="275.024" y1="401.287" x2="282.564" y2="434.103" gradientUnits="userSpaceOnUse">
<stop stop-color="#FE9738" stop-opacity="0"/>
<stop offset="1" stop-color="#FE7701"/>
</linearGradient>
<linearGradient id="paint11_linear_72_18" x1="330.139" y1="299.398" x2="125.526" y2="223.532" gradientUnits="userSpaceOnUse">
<stop stop-color="#CA6E59" stop-opacity="0"/>
<stop offset="0.1958" stop-color="#B5604B" stop-opacity="0.196"/>
<stop offset="0.4986" stop-color="#9D4E3B" stop-opacity="0.499"/>
<stop offset="0.7753" stop-color="#8D4331" stop-opacity="0.775"/>
<stop offset="1" stop-color="#883F2E"/>
</linearGradient>
<linearGradient id="paint12_linear_72_18" x1="225.938" y1="212.503" x2="255.749" y2="275.6" gradientUnits="userSpaceOnUse">
<stop stop-color="#EDF5FF"/>
<stop offset="1" stop-color="#C7E9FF"/>
</linearGradient>
<linearGradient id="paint13_linear_72_18" x1="264.723" y1="257.585" x2="214.788" y2="226.308" gradientUnits="userSpaceOnUse">
<stop stop-color="#EDF5FF"/>
<stop offset="1" stop-color="#C7E9FF"/>
</linearGradient>
<linearGradient id="paint14_linear_72_18" x1="233.162" y1="239.669" x2="248.757" y2="249.437" gradientUnits="userSpaceOnUse">
<stop stop-color="#537983"/>
<stop offset="1" stop-color="#3E5959"/>
</linearGradient>
<linearGradient id="paint15_linear_72_18" x1="356.973" y1="129.341" x2="396.528" y2="168.896" gradientUnits="userSpaceOnUse">
<stop stop-color="#EDF5FF"/>
<stop offset="1" stop-color="#C7E9FF"/>
</linearGradient>
<linearGradient id="paint16_linear_72_18" x1="400.921" y1="193.966" x2="418.502" y2="211.547" gradientUnits="userSpaceOnUse">
<stop stop-color="#EDF5FF"/>
<stop offset="1" stop-color="#C7E9FF"/>
</linearGradient>
<linearGradient id="paint17_linear_72_18" x1="29.3106" y1="305.563" x2="46.8912" y2="323.143" gradientUnits="userSpaceOnUse">
<stop stop-color="#EDF5FF"/>
<stop offset="1" stop-color="#C7E9FF"/>
</linearGradient>
<linearGradient id="paint18_linear_72_18" x1="390.48" y1="86.3623" x2="408.061" y2="103.943" gradientUnits="userSpaceOnUse">
<stop stop-color="#EDF5FF"/>
<stop offset="1" stop-color="#C7E9FF"/>
</linearGradient>
<linearGradient id="paint19_linear_72_18" x1="293.71" y1="69.9932" x2="311.291" y2="87.5738" gradientUnits="userSpaceOnUse">
<stop stop-color="#EDF5FF"/>
<stop offset="1" stop-color="#C7E9FF"/>
</linearGradient>
</defs>
</svg>

<svg width="512" height="512" viewBox="0 0 512 512" fill="none" xmlns="http://www.w3.org/2000/svg"><path d="M290.393 124.709l-150.224 34.448c-46.638 10.695-74.992 60.583-63.333 111.43l6.667 29.073c2.356 10.276 11.909 16.855 21.335 14.694l284.979-65.351c9.426-2.161 15.156-12.244 12.8-22.521l-6.667-29.073c-11.66-50.846-58.919-83.395-105.557-72.7z" fill="url(#illustrations--treasure__paint0_linear_72_18)"/><path d="M76.837 270.587l6.667 29.073c2.356 10.277 11.909 16.855 21.335 14.694l284.979-65.35c9.426-2.162 15.156-12.245 12.8-22.521l-6.667-29.074c-6.208-27.067-22.502-48.947-43.421-61.881L88.957 195.969c-13.193 20.757-18.327 47.551-12.12 74.618z" fill="url(#illustrations--treasure__paint1_linear_72_18)"/><path d="M76.837 270.587l6.667 29.073c2.356 10.276 11.909 16.855 21.334 14.694l284.98-65.351c9.425-2.161 15.156-12.244 12.8-22.521l-6.667-29.073c-3.082-13.441-8.654-25.599-16.042-36.022L75.58 231.175c-2.108 12.599-1.825 25.971 1.257 39.412z" fill="url(#illustrations--treasure__paint2_linear_72_18)"/><path d="M367.073 152.613l5.536 24.142c1.632 7.119-2.815 14.213-9.934 15.845l-252.739 57.958c-7.119 1.632-14.213-2.815-15.845-9.934l-7.081-30.877c-1.465-6.388-10.087-7.525-13.151-1.732-10.212 19.316-13.81 42.245-8.543 65.213l6.667 29.074c2.356 10.276 12.597 16.697 22.875 14.34l304.935-69.926c10.276-2.357 16.697-12.598 14.34-22.875l-6.667-29.073c-4.504-19.64-14.829-36.43-28.736-48.972-5.144-4.64-13.205.064-11.657 6.817z" fill="url(#illustrations--treasure__paint3_linear_72_18)"/><path d="M386.773 210.792L90.928 278.634c-9.888 2.268-16.112 11.926-13.9 21.572l33.576 146.42c2.212 9.645 12.022 15.627 21.911 13.359l295.844-67.842c9.889-2.268 16.112-11.926 13.901-21.572l-33.577-146.42c-2.211-9.645-12.022-15.627-21.91-13.359z" fill="url(#illustrations--treasure__paint4_linear_72_18)"/><path d="M402.423 279.039l-295.845 67.842c-9.888 2.268-16.787 8.983-15.407 14.999l20.941 91.318c1.379 6.016 10.514 9.055 20.404 6.787l295.844-67.842c9.889-2.268 16.788-8.983 15.408-14.999l-20.941-91.318c-1.381-6.016-10.515-9.055-20.404-6.787z" fill="url(#illustrations--treasure__paint5_linear_72_18)"/><path d="M411.8 319.931l-295.845 67.842c-9.889 2.268-17.191 7.219-16.31 11.06l13.369 58.303c.881 3.841 9.612 5.116 19.501 2.848l295.844-67.842c9.889-2.268 17.191-7.22 16.311-11.06l-13.37-58.303c-.881-3.841-9.611-5.116-19.5-2.848z" fill="url(#illustrations--treasure__paint6_linear_72_18)"/><path d="M147.396 265.685l-56.469 12.948c-9.889 2.268-16.112 11.926-13.9 21.571l33.576 146.42c2.212 9.646 12.022 15.627 21.911 13.36l56.468-12.949-41.586-181.35z" fill="url(#illustrations--treasure__paint7_linear_72_18)"/><path d="M389.958 203.822L85.023 273.748c-10.276 2.356-16.696 12.597-14.34 22.875l35.772 155.991c2.356 10.276 12.597 16.697 22.874 14.34l304.935-69.926c10.276-2.356 16.698-12.597 14.34-22.875l-35.771-155.991c-2.357-10.276-12.598-16.696-22.875-14.34zm24.478 155.637c1.792 7.815-3.09 15.603-10.906 17.395l-255.329 58.551c-7.815 1.792-15.603-3.09-17.395-10.906l-25.954-113.183c-1.792-7.815 3.09-15.603 10.905-17.395l255.33-58.551c7.814-1.792 15.603 3.09 17.395 10.906l25.954 113.183z" fill="url(#illustrations--treasure__paint8_linear_72_18)"/><path d="M140.533 449.152l275.889-63.265c9.038-2.073 14.741-10.835 12.737-19.572l-30.412-132.623c-2.004-8.737-10.955-14.139-19.994-12.067L102.865 284.89c-9.039 2.073-14.742 10.835-12.738 19.572l30.413 132.623c2.004 8.737 10.955 14.14 19.993 12.067zm-35.681-137.835c-1.792-7.814 3.09-15.603 10.905-17.395l255.33-58.551c7.814-1.792 15.602 3.09 17.394 10.906l25.955 113.183c1.792 7.815-3.09 15.603-10.906 17.395l-255.329 58.551c-7.815 1.792-15.603-3.09-17.395-10.906l-25.954-113.183z" fill="url(#illustrations--treasure__paint9_linear_72_18)"/><path d="M412.256 349.956l2.18 9.504c1.792 7.814-3.09 15.603-10.906 17.395l-255.329 58.551c-7.815 1.792-15.603-3.09-17.395-10.906l-2.18-9.504-29.259 6.71 7.088 30.909c2.356 10.276 12.597 16.697 22.874 14.34l304.935-69.926c10.277-2.357 16.698-12.598 14.34-22.875l-7.087-30.908-29.261 6.71z" fill="url(#illustrations--treasure__paint10_linear_72_18)"/><path d="M448.605 374.155l-14.156-61.73-166.894-104.63c-3.067-3.068-7.587-4.548-12.128-3.507l-46.648 10.697c-7.015 1.608-11.397 8.599-9.787 15.612l6.26 27.303c2.265 9.875 8.759 17.679 17.131 21.946l193.6 121.372 18.281-4.192c10.277-2.354 16.697-12.595 14.341-22.871z" fill="url(#illustrations--treasure__paint11_linear_72_18)"/><path d="M251.09 279.825l-7.957 1.825c-17.698 4.059-35.336-6.998-39.394-24.697l-6.262-27.303c-1.608-7.014 2.774-14.004 9.788-15.612l46.648-10.697c7.014-1.608 14.004 2.774 15.612 9.787l6.26 27.303c4.06 17.698-6.997 35.335-24.695 39.394z" fill="url(#illustrations--treasure__paint12_linear_72_18)"/><path d="M241.645 268.821l5.193-1.191c11.551-2.649 18.769-14.16 16.12-25.712l-4.087-17.821a8.504 8.504 0 00-10.19-6.388l-30.447 6.983a8.503 8.503 0 00-6.387 10.189l4.086 17.821c2.649 11.551 14.161 18.768 25.712 16.119z" fill="url(#illustrations--treasure__paint13_linear_72_18)"/><path d="M250.052 235.768c-1.594-6.953-8.524-11.297-15.478-9.703-6.953 1.594-11.297 8.524-9.702 15.477 1.17 5.105 5.22 8.793 10.04 9.768l1.848 8.059a5.315 5.315 0 0010.359-2.375l-1.848-8.06c3.914-2.977 5.951-8.061 4.781-13.166z" fill="url(#illustrations--treasure__paint14_linear_72_18)"/><path d="M368.574 169.177c15.594 0 28.235-12.642 28.235-28.236 0-15.594-12.641-28.235-28.235-28.235s-28.236 12.641-28.236 28.235 12.642 28.236 28.236 28.236z" fill="url(#illustrations--treasure__paint15_linear_72_18)"/><path d="M410.123 219.538c9.04 0 16.369-7.328 16.369-16.369 0-9.04-7.329-16.369-16.369-16.369s-16.369 7.329-16.369 16.369c0 9.041 7.329 16.369 16.369 16.369z" fill="url(#illustrations--treasure__paint16_linear_72_18)"/><path d="M38.513 331.133c9.04 0 16.368-7.328 16.368-16.369 0-9.04-7.328-16.368-16.368-16.368s-16.37 7.328-16.37 16.368c0 9.041 7.33 16.369 16.37 16.369z" fill="url(#illustrations--treasure__paint17_linear_72_18)"/><path d="M399.683 111.933c9.041 0 16.369-7.328 16.369-16.369 0-9.04-7.328-16.369-16.369-16.369-9.04 0-16.369 7.329-16.369 16.37 0 9.04 7.329 16.368 16.369 16.368z" fill="url(#illustrations--treasure__paint18_linear_72_18)"/><path d="M302.912 95.564c9.041 0 16.369-7.329 16.369-16.369s-7.328-16.369-16.369-16.369c-9.04 0-16.369 7.329-16.369 16.37 0 9.04 7.329 16.368 16.369 16.368z" fill="url(#illustrations--treasure__paint19_linear_72_18)"/><defs><linearGradient id="illustrations--treasure__paint0_linear_72_18" x1="194.32" y1="149.73" x2="265.784" y2="300.995" gradientUnits="userSpaceOnUse"><stop stop-color="#F6A96C"/><stop offset="1" stop-color="#CA6E59"/></linearGradient><linearGradient id="illustrations--treasure__paint1_linear_72_18" x1="242.094" y1="196.021" x2="254.912" y2="30.012" gradientUnits="userSpaceOnUse"><stop stop-color="#CA6E59" stop-opacity="0"/><stop offset="1" stop-color="#883F2E"/></linearGradient><linearGradient id="illustrations--treasure__paint2_linear_72_18" x1="239.167" y1="233.939" x2="250.454" y2="87.75" gradientUnits="userSpaceOnUse"><stop stop-color="#CA6E59" stop-opacity="0"/><stop offset="1" stop-color="#883F2E"/></linearGradient><linearGradient id="illustrations--treasure__paint3_linear_72_18" x1="200.699" y1="163.412" x2="266.88" y2="303.497" gradientUnits="userSpaceOnUse"><stop stop-color="#FFE177"/><stop offset="1" stop-color="#FE9738"/></linearGradient><linearGradient id="illustrations--treasure__paint4_linear_72_18" x1="216.144" y1="242.794" x2="309.233" y2="439.833" gradientUnits="userSpaceOnUse"><stop stop-color="#F6A96C"/><stop offset="1" stop-color="#CA6E59"/></linearGradient><linearGradient id="illustrations--treasure__paint5_linear_72_18" x1="242.89" y1="400.991" x2="437.482" y2="154.257" gradientUnits="userSpaceOnUse"><stop stop-color="#CA6E59" stop-opacity="0"/><stop offset="1" stop-color="#883F2E"/></linearGradient><linearGradient id="illustrations--treasure__paint6_linear_72_18" x1="238.748" y1="444.082" x2="392.017" y2="197.717" gradientUnits="userSpaceOnUse"><stop stop-color="#CA6E59" stop-opacity="0"/><stop offset="1" stop-color="#883F2E"/></linearGradient><linearGradient id="illustrations--treasure__paint7_linear_72_18" x1="136.493" y1="363.717" x2="75.756" y2="377.671" gradientUnits="userSpaceOnUse"><stop stop-color="#CA6E59" stop-opacity="0"/><stop offset=".196" stop-color="#B5604B" stop-opacity=".196"/><stop offset=".499" stop-color="#9D4E3B" stop-opacity=".499"/><stop offset=".775" stop-color="#8D4331" stop-opacity=".775"/><stop offset="1" stop-color="#883F2E"/></linearGradient><linearGradient id="illustrations--treasure__paint8_linear_72_18" x1="213.689" y1="237.599" x2="312.003" y2="445.694" gradientUnits="userSpaceOnUse"><stop stop-color="#FFE177"/><stop offset="1" stop-color="#FE9738"/></linearGradient><linearGradient id="illustrations--treasure__paint9_linear_72_18" x1="308.334" y1="436.582" x2="211.767" y2="232.182" gradientUnits="userSpaceOnUse"><stop stop-color="#FFE177"/><stop offset="1" stop-color="#FE9738"/></linearGradient><linearGradient id="illustrations--treasure__paint10_linear_72_18" x1="275.024" y1="401.287" x2="282.564" y2="434.103" gradientUnits="userSpaceOnUse"><stop stop-color="#FE9738" stop-opacity="0"/><stop offset="1" stop-color="#FE7701"/></linearGradient><linearGradient id="illustrations--treasure__paint11_linear_72_18" x1="330.139" y1="299.398" x2="125.526" y2="223.532" gradientUnits="userSpaceOnUse"><stop stop-color="#CA6E59" stop-opacity="0"/><stop offset=".196" stop-color="#B5604B" stop-opacity=".196"/><stop offset=".499" stop-color="#9D4E3B" stop-opacity=".499"/><stop offset=".775" stop-color="#8D4331" stop-opacity=".775"/><stop offset="1" stop-color="#883F2E"/></linearGradient><linearGradient id="illustrations--treasure__paint12_linear_72_18" x1="225.938" y1="212.503" x2="255.749" y2="275.6" gradientUnits="userSpaceOnUse"><stop stop-color="#EDF5FF"/><stop offset="1" stop-color="#C7E9FF"/></linearGradient><linearGradient id="illustrations--treasure__paint13_linear_72_18" x1="264.723" y1="257.585" x2="214.788" y2="226.308" gradientUnits="userSpaceOnUse"><stop stop-color="#EDF5FF"/><stop offset="1" stop-color="#C7E9FF"/></linearGradient><linearGradient id="illustrations--treasure__paint14_linear_72_18" x1="233.162" y1="239.669" x2="248.757" y2="249.437" gradientUnits="userSpaceOnUse"><stop stop-color="#537983"/><stop offset="1" stop-color="#3E5959"/></linearGradient><linearGradient id="illustrations--treasure__paint15_linear_72_18" x1="356.973" y1="129.341" x2="396.528" y2="168.896" gradientUnits="userSpaceOnUse"><stop stop-color="#EDF5FF"/><stop offset="1" stop-color="#C7E9FF"/></linearGradient><linearGradient id="illustrations--treasure__paint16_linear_72_18" x1="400.921" y1="193.966" x2="418.502" y2="211.547" gradientUnits="userSpaceOnUse"><stop stop-color="#EDF5FF"/><stop offset="1" stop-color="#C7E9FF"/></linearGradient><linearGradient id="illustrations--treasure__paint17_linear_72_18" x1="29.311" y1="305.563" x2="46.891" y2="323.143" gradientUnits="userSpaceOnUse"><stop stop-color="#EDF5FF"/><stop offset="1" stop-color="#C7E9FF"/></linearGradient><linearGradient id="illustrations--treasure__paint18_linear_72_18" x1="390.48" y1="86.362" x2="408.061" y2="103.943" gradientUnits="userSpaceOnUse"><stop stop-color="#EDF5FF"/><stop offset="1" stop-color="#C7E9FF"/></linearGradient><linearGradient id="illustrations--treasure__paint19_linear_72_18" x1="293.71" y1="69.993" x2="311.291" y2="87.574" gradientUnits="userSpaceOnUse"><stop stop-color="#EDF5FF"/><stop offset="1" stop-color="#C7E9FF"/></linearGradient></defs></svg>
